resources/haticons/SVG/newspaper.svg

<!-- Generated by IcoMoon.io -->
<svg version="1.1" xmlns="http://www.w3.org/2000/svg" width="24" height="24" viewBox="0 0 24 24">
<title>newspaper</title>
<path d="M21 6v-3h-21v16.5c0 0.828 0.672 1.5 1.5 1.5h20.25c1.243 0 2.25-1.007 2.25-2.25v-12.75h-3zM19.5 19.5h-18v-15h18v15zM3 7.5h15v1.5h-15zM12 10.5h6v1.5h-6zM12 13.5h6v1.5h-6zM12 16.5h4.5v1.5h-4.5zM3 10.5h7.5v7.5h-7.5z"></path>
</svg>

<svg xmlns="http://www.w3.org/2000/svg" width="24" height="24"><path d="M21 6V3H0v16.5A1.5 1.5 0 0 0 1.5 21h20.25A2.25 2.25 0 0 0 24 18.75V6h-3zm-1.5 13.5h-18v-15h18v15zM3 7.5h15V9H3zm9 3h6V12h-6zm0 3h6V15h-6zm0 3h4.5V18H12zm-9-6h7.5V18H3z"/></svg>
